!!!COM:	Ockeghem, Johannes
!!!CDT:	~1425-1497/02/06
!!!OPR:	Missa Ecce ancilla domini
!!!ONM:	2
!!!OTL:	Gloria
!!!AGN:	Mass; Gloria
!!!SCT:	Ock1006b
!!!SCA:	Ock1006b
!!!voices:	4
**kern	**text	**kern	**text	**kern	**text	**kern	**text
*staff4	*staff4	*staff3	*staff3	*staff2	*staff2	*staff1	*staff1
*Ivox	*	*Ivox	*	*Ivox	*	*Ivox	*
*I"Bassus	*	*I"Tenor	*	*I"Contratenor	*	*I"Discantus	*
*I'B	*	*I'T	*	*I'Ct	*	*I'D	*
*>[A,B]	*>[A,B]	*>[A,B]	*>[A,B]	*>[A,B]	*>[A,B]	*>[A,B]	*>[A,B]
*>A	*>A	*>A	*>A	*>A	*>A	*>A	*>A
*clefF4	*	*clefGv2	*	*clefGv2	*	*clefG2	*
*k[]	*	*k[]	*	*k[]	*	*k[]	*
*M3/1	*	*M3/1	*	*M3/1	*	*M3/1	*
*met(O)	*	*met(O)	*	*met(O)	*	*met(O)	*
!!section: Et in terra
!!!OMD: Et in terra
=1-	=1-	=1-	=1-	=1-	=1-	=1-	=1-
0.r	.	0.r	.	1.G	Et	0g	Et
.	.	.	.	2A/	.	.	.
.	.	.	.	1B	in	1g	in
=2	=2	=2	=2	=2	=2	=2	=2
0.r	.	0.r	.	0.c	ter-	1.g	ter-
.	.	.	.	.	.	1a	-ra
.	.	.	.	.	.	4g/	.
.	.	.	.	.	.	4f/	.
=3	=3	=3	=3	=3	=3	=3	=3
0.r	.	0.r	.	1.c	-ra	1e	.
.	.	.	.	.	.	2.g/	.
.	.	.	.	1d	.	.	.
.	.	.	.	.	.	4f/	.
.	.	.	.	.	.	1d	.
.	.	.	.	4c\	.	.	.
.	.	.	.	4B\	.	.	.
=4	=4	=4	=4	=4	=4	=4	=4
0.r	.	0.r	.	1A	.	1c	pax
.	.	.	.	2.c\	.	1r	.
.	.	.	.	4B\	.	.	.
.	.	.	.	1G	.	1g	ho-
=5	=5	=5	=5	=5	=5	=5	=5
0.r	.	0.r	.	1F	pax	1a	-mi-
.	.	.	.	1r	.	2b\	.
.	.	.	.	.	.	2.cc\	.
.	.	.	.	1c	ho-	.	.
.	.	.	.	.	.	4b\	.
.	.	.	.	.	.	2g/	.
=6	=6	=6	=6	=6	=6	=6	=6
0.r	.	0.r	.	1d	-mi-	2f/	.
.	.	.	.	.	.	2a/	.
.	.	.	.	2B\	.	2d/	.
.	.	.	.	2c\	.	1e	.
.	.	.	.	2.A/	.	.	.
.	.	.	.	.	.	2c/	.
.	.	.	.	4F/	.	.	.
=7	=7	=7	=7	=7	=7	=7	=7
0.r	.	0.r	.	2G/	.	2B/	.
.	.	.	.	1C	.	2c/	.
.	.	.	.	.	.	2G/	.
.	.	.	.	1G	.	2B/	.
.	.	.	.	.	.	1A	-ni-
.	.	.	.	2F#i/	-ni-	.	.
=8	=8	=8	=8	=8	=8	=8	=8
0.r	.	0.r	.	0.G	-bus	1G	-bus
.	.	.	.	.	.	1r	.
.	.	.	.	.	.	1d	bo-
=9	=9	=9	=9	=9	=9	=9	=9
0.r	.	0.r	.	1r	.	1e	.
.	.	.	.	1d	bo-	2d/	.
.	.	.	.	.	.	2.B/	.
.	.	.	.	2e\	.	.	.
.	.	.	.	.	.	4c/	.
.	.	.	.	[2d\	.	2d/	.
=10	=10	=10	=10	=10	=10	=10	=10
0.r	.	0.r	.	2d\]	.	2G/	-ne
.	.	.	.	2B\	.	2d/	vo-
.	.	.	.	2c\	.	2e/	.
.	.	.	.	2d\	.	2d/	-lun-
.	.	.	.	2G/	-ne	2.g/	-ta-
.	.	.	.	[2d\	vo-	.	.
.	.	.	.	.	.	4f/	.
=11	=11	=11	=11	=11	=11	=11	=11
0.r	.	0.r	.	4d\]	.	2.a/	.
.	.	.	.	4c\	.	.	.
.	.	.	.	2d\	.	.	.
.	.	.	.	.	.	4g/	.
.	.	.	.	2B\	.	2g/	.
.	.	.	.	2c\	.	2e/	.
.	.	.	.	1A	-lun-	1f	.
=12	=12	=12	=12	=12	=12	=12	=12
0.r	.	0.r	.	2G/	-ta-	1g	.
.	.	.	.	2E/	.	.	.
.	.	.	.	0F	-tis.	1.a	.
.	.	.	.	.	.	4g/	.
.	.	.	.	.	.	4f/	.
=13	=13	=13	=13	=13	=13	=13	=13
0.r	.	0.r	.	2.G/	Lau-	2e/	-tis.
.	.	.	.	.	.	1d	.
.	.	.	.	4A/	.	.	.
.	.	.	.	2B\	.	.	.
.	.	.	.	2.c\	-da-	2g/	Lau-
.	.	.	.	.	.	2f/	.
.	.	.	.	4A/	.	.	.
.	.	.	.	2B\	.	2g/	.
=14	=14	=14	=14	=14	=14	=14	=14
0.r	.	0.r	.	2A/	.	2a/	-da-
.	.	.	.	1d	.	2f/	.
.	.	.	.	.	.	1e	-mus
.	.	.	.	2c#i\	.	.	.
.	.	.	.	2d\	.	1d	te,
.	.	.	.	2G/	.	.	.
=15	=15	=15	=15	=15	=15	=15	=15
1r	.	0.r	.	2A/	.	0.r	.
.	.	.	.	2F/	.	.	.
2r	.	.	.	1E	-mus	.	.
2C/	Lau-	.	.	.	.	.	.
2D\	-da-	.	.	1D	te,	.	.
2BB/	.	.	.	.	.	.	.
=16	=16	=16	=16	=16	=16	=16	=16
1AA	-mus	0.r	.	2r	.	0.r	.
.	.	.	.	2C/	be-	.	.
1GG	te,	.	.	2D/	.	.	.
.	.	.	.	2E/	-ne-	.	.
1D	be-	.	.	1F	-di-	.	.
=17	=17	=17	=17	=17	=17	=17	=17
2E\	.	0.r	.	2G/	.	0.r	.
4D\	-ne-	.	.	2.A/	-ci-	.	.
2F\	-di-	.	.	.	.	.	.
4G\	-ci-	.	.	4B\	.	.	.
2E\	-mus	.	.	2c\	-mus	.	.
2D\	te,	.	.	1d	te,	.	.
2F\	ad-	.	.	.	.	.	.
=18	=18	=18	=18	=18	=18	=18	=18
2G\	-o-	0.r	.	2B\	ad-	0.r	.
2A\	.	.	.	4c\	-o-	.	.
.	.	.	.	4d\	.	.	.
2.G\	-ra-	.	.	2e\	-ra-	.	.
.	.	.	.	4d\	.	.	.
4D\	.	.	.	2d\	.	.	.
2G\	.	.	.	.	.	.	.
.	.	.	.	4B\	.	.	.
2F#i\	-mus	.	.	2A/	.	.	.
=19	=19	=19	=19	=19	=19	=19	=19
2G\	te.	0.r	.	2G/	.	0.r	.
2r	.	.	.	4F/	.	.	.
.	.	.	.	2A/	.	.	.
2D\	Glo-	.	.	.	.	.	.
.	.	.	.	4F/	.	.	.
2C/	.	.	.	2E/	-mus	.	.
4BB/	.	.	.	2D/	te.	.	.
2D\	.	.	.	.	.	.	.
.	.	.	.	2r	.	.	.
4BB/	.	.	.	.	.	.	.
=20	=20	=20	=20	=20	=20	=20	=20
2AA/	.	0.r	.	2C/	Glo-	0.r	.
2GG/	-ri-	.	.	2D/	-ri-	.	.
2C/	-fi-	.	.	2E/	-fi-	.	.
2D\	.	.	.	2.F/	-ca-	.	.
2.F\	-ca-	.	.	.	.	.	.
.	.	.	.	4G/	.	.	.
.	.	.	.	2A/	.	.	.
4E\	.	.	.	.	.	.	.
=21	=21	=21	=21	=21	=21	=21	=21
2D\	.	0.r	.	2B\	.	0.r	.
2C/	.	.	.	2.c\	.	.	.
1F	.	.	.	.	.	.	.
.	.	.	.	4B\	.	.	.
.	.	.	.	2A/	.	.	.
2E\	.	.	.	2G/	.	.	.
2G\	.	.	.	2B\	.	.	.
=22	=22	=22	=22	=22	=22	=22	=22
2C/	.	0.r	.	2c\	.	0.r	.
2BB/	.	.	.	2d\	.	.	.
2C/	.	.	.	2G/	.	.	.
2AA/	.	.	.	2F/	.	.	.
1GG	.	.	.	2G/	.	.	.
.	.	.	.	2E/	.	.	.
=23	=23	=23	=23	=23	=23	=23	=23
2D\	.	0.r	.	2D/	.	0.r	.
4C/	.	.	.	2.A/	.	.	.
4BB/	.	.	.	.	.	.	.
2GG/	.	.	.	.	.	.	.
.	.	.	.	4G/	.	.	.
2BB/	.	.	.	1G	.	.	.
1AA	-mus	.	.	.	.	.	.
.	.	.	.	2F#i/	-mus	.	.
=24	=24	=24	=24	=24	=24	=24	=24
0.GG	te.	[0.d	Gra-	0.G	te.	1r	.
.	.	.	.	.	.	1r	.
.	.	.	.	.	.	1g	Gra-
=25	=25	=25	=25	=25	=25	=25	=25
0.r	.	0d]	.	0D	Gra-	1f	-ti-
.	.	.	.	.	.	1.a	.
.	.	1c	-ti-	1F	-ti-	.	.
.	.	.	.	.	.	2g/	.
=26	=26	=26	=26	=26	=26	=26	=26
[0.G	Gra-	1B	-as	2.G/	-as	1e	-as
.	.	.	.	4A/	.	.	.
.	.	0d	a-	0B	.	1d	.
.	.	.	.	.	.	1g	a-
=27	=27	=27	=27	=27	=27	=27	=27
1G]	.	0.d	-gi-	1G	.	1b	.
0F	-ti-	.	.	1D	.	1.a	.
.	.	.	.	1A	.	.	.
.	.	.	.	.	.	2g/	-gi-
=28	=28	=28	=28	=28	=28	=28	=28
1E	-as	0e	-mus	2r	.	1g	-mus
.	.	.	.	1B	a-	.	.
0G	.	.	.	.	.	1r	.
.	.	.	.	2G/	-gi-	.	.
.	.	[1d	ti-	2.G/	-mus	1b	ti-
.	.	.	.	4F/	.	.	.
=29	=29	=29	=29	=29	=29	=29	=29
1r	.	1d]	.	1D	.	2.a/	.
.	.	.	.	.	.	4g/	.
0A	a-	0c	.	2r	.	2.a/	.
.	.	.	.	1F	ti-	.	.
.	.	.	.	.	.	4g/	.
.	.	.	.	.	.	1e	.
.	.	.	.	2G/	.	.	.
=30	=30	=30	=30	=30	=30	=30	=30
0.D	-gi-	1d	-bi	2A/	.	2d/	.
.	.	.	.	1B-	.	2f/	.
.	.	0d	prop-	.	.	2g/	.
.	.	.	.	4A/	.	1a	.
.	.	.	.	4G/	.	.	.
.	.	.	.	1F	.	.	.
.	.	.	.	.	.	2f/	.
=31	=31	=31	=31	=31	=31	=31	=31
2C/	-mus	0.G	-ter	2G/	.	2e/	.
2.BB/	ti-	.	.	2d\	.	2d/	.
.	.	.	.	2c\	.	2e/	.
4AA/	.	.	.	.	.	.	.
1BB	.	.	.	2B\	.	1d	.
.	.	.	.	1d	-bi	.	.
2GG/	.	.	.	.	.	2B/	.
=32	=32	=32	=32	=32	=32	=32	=32
[0.D	-bi	0.F	ma-	2r	.	0A	-bi
.	.	.	.	1d	prop-	.	.
.	.	.	.	4c\	.	.	.
.	.	.	.	4B\	.	.	.
.	.	.	.	1A	-ter	1r	.
=33	=33	=33	=33	=33	=33	=33	=33
1D]	.	0.A	-gnam	1.d	ma-	1a	prop-
0F	prop-	.	.	.	.	2g/	.
.	.	.	.	2c\	.	1f	-ter
.	.	.	.	2c\	.	.	.
.	.	.	.	2A/	.	4e/	.
.	.	.	.	.	.	4d/	.
=34	=34	=34	=34	=34	=34	=34	=34
0C	-ter	0.c	.	1G	-gnam	2.e/	ma-
.	.	.	.	.	.	4f/	.
.	.	.	.	1r	.	2g/	.
.	.	.	.	.	.	1a	.
1F	ma-	.	.	1A	glo-	.	.
.	.	.	.	.	.	2f/	.
=35	=35	=35	=35	=35	=35	=35	=35
2E\	.	0.r	.	2G/	.	2g/	.
1F	.	.	.	1A	.	2f/	.
.	.	.	.	.	.	2d/	.
2G\	.	.	.	2B\	-ri-	2.e/	.
1E	.	.	.	1G	-am	.	.
.	.	.	.	.	.	4c/	.
.	.	.	.	.	.	2B/	.
=36	=36	=36	=36	=36	=36	=36	=36
1AA	-gnam	0.c	glo-	2E/	tu-	1A	-gnam
.	.	.	.	1F	.	.	.
1r	.	.	.	.	.	1a	glo-
.	.	.	.	1C	.	.	.
1r	.	.	.	.	.	2g/	.
.	.	.	.	2F/	.	2a/	.
=37	=37	=37	=37	=37	=37	=37	=37
0.r	.	2B\	-ri-	2G/	.	4g/	.
.	.	.	.	.	.	4f/	.
.	.	1c	-am	1A	.	2e/	-ri-
.	.	.	.	.	.	2a/	-am
.	.	2d\	tu-	2D/	.	1a	tu-
.	.	1B	.	1E	.	.	.
.	.	.	.	.	.	2g#i/	.
=38	=38	=38	=38	=38	=38	=38	=38
1r	.	0.A	-am.	1F	-am.	1a	-am.
1r	.	.	.	1D	Do-	1.f	Do-
1D	Do-	.	.	2.F/	-mi-	.	.
.	.	.	.	.	.	4e/	.
.	.	.	.	4G/	.	4d/	.
=39	=39	=39	=39	=39	=39	=39	=39
0.F	-mi-	1r	.	1.A	-ne	1c	.
.	.	1r	.	.	.	2d/	-mi-
.	.	.	.	2B\	.	2c/	-ne
.	.	1A	Do-	1c	de-	1f	de-
=40	=40	=40	=40	=40	=40	=40	=40
0C	-ne	0c	-mi-	2A/	-us,	1e	-us,
.	.	.	.	1G	.	.	.
.	.	.	.	.	.	2r	.
.	.	.	.	2A/	rex	2e/	rex
2r	.	[1G	-ne	2B\	ce-	2d/	ce-
[2C/	de-	.	.	[2c\	-les-	[2e/	-les-
=41	=41	=41	=41	=41	=41	=41	=41
2C/]	.	1G]	.	4c\]	.	4e/]	.
.	.	.	.	4A/	.	4c/	.
2BB/	-us,	.	.	2B\	.	2d/	.
1C	rex	2r	.	2G/	.	2e/	-tis,
.	.	1G	de-	2.c\	.	2c/	.
1D	ce-	.	.	.	.	2r	.
.	.	.	.	4A/	.	.	.
.	.	2F/	.	2B\	.	2f/	de-
=42	=42	=42	=42	=42	=42	=42	=42
1.C	-les-	1G	-us,	0c	-tis,	2e/	.
.	.	.	.	.	.	1g	.
.	.	1A	.	.	.	.	.
2AA/	.	.	.	.	.	2f/	-us
2BB/	.	1G	.	2r	.	2.g/	pa-
[2C/	.	.	.	[2c\	de-	.	.
.	.	.	.	.	.	4f/	.
=43	=43	=43	=43	=43	=43	=43	=43
4C/]	.	2r	.	2c\]	.	4e/	.
4BB/	.	.	.	.	.	4d/	.
2GG/	.	2.G/	rex	2B\	-us	1d	.
1AA	-tis,	.	.	1A	pa-	.	.
.	.	4E/	.	.	.	.	.
.	.	2F/	.	.	.	2c/	.
1GG	.	2r	.	1B	.	2d/	-ter
.	.	[2G/	ce-	.	.	[2e/	om-
=44	=44	=44	=44	=44	=44	=44	=44
1r	.	4G/]	.	1A	-ter	2e/]	.
.	.	4F/	.	.	.	.	.
.	.	2D/	.	.	.	2.d/	-ni-
2r	.	1E	-les-	2.G/	om-	.	.
.	.	.	.	.	.	4B/	.
2C/	de-	.	.	.	.	2c/	.
.	.	.	.	4E/	.	.	.
2BB/	.	1D	-tis,	2F/	.	2d/	.
2GG/	.	.	.	[2G/	-ni-	2B/	.
=45	=45	=45	=45	=45	=45	=45	=45
1D	-us	1r	.	2G/]	.	1A	-po-
.	.	.	.	2F/	.	.	.
1GG	pa-	1D	de-	2.G/	.	1B	-tens.
.	.	.	.	4A/	.	.	.
2GG/	-ter	2.G/	-us	2B\	.	1r	.
[2C/	om-	.	.	[2c\	.	.	.
.	.	4A/	.	.	.	.	.
=46	=46	=46	=46	=46	=46	=46	=46
4C/]	.	2B\	.	4c\]	.	0.r	.
4D\	.	.	.	4B\	.	.	.
2E\	.	2.c\	pa-	2G/	.	.	.
2.F\	.	.	.	2F/	.	.	.
.	.	4B\	.	.	.	.	.
.	.	4A/	.	1A	-po-	.	.
4E\	.	4G/	.	.	.	.	.
4D\	.	2F/	-ter	.	.	.	.
4C/	.	.	.	.	.	.	.
2BB/	.	2G/	om-	2D/	.	.	.
=47	=47	=47	=47	=47	=47	=47	=47
2C/	-ni-	1A	-ni-	2E/	.	0.r	.
1D	-po-	.	.	1F	.	.	.
.	.	2B\	-po-	.	.	.	.
2E\	.	1G	.	1G	-i	.	.
1C	.	.	.	.	.	.	.
.	.	[2c\	.	2r	.	.	.
=48	=48	=48	=48	=48	=48	=48	=48
2.F\	.	4c\]	.	2r	.	0.r	.
.	.	4B\	.	.	.	.	.
.	.	2c\	.	1A	om-	.	.
4E\	.	.	.	.	.	.	.
2F\	.	1d	.	.	.	.	.
2G\	.	.	.	2G/	.	.	.
1D	.	2B\	.	1F	.	.	.
.	.	[2A/	.	.	.	.	.
=49	=49	=49	=49	=49	=49	=49	=49
1F	.	2A/]	.	1A	-ni-	0.r	.
.	.	1c	.	.	.	.	.
2.C/	.	.	.	2G/	-po-	.	.
.	.	2.G/	.	1E	.	.	.
4D\	.	.	.	.	.	.	.
2E\	.	.	.	.	.	.	.
.	.	8F/L	.	.	.	.	.
.	.	8G/J	.	.	.	.	.
2D\	.	2A/	.	2F/	.	.	.
=50	=50	=50	=50	=50	=50	=50	=50
2GG/	.	4G/	.	2.G/	.	0.r	.
.	.	2E/	.	.	.	.	.
1BB	.	.	.	.	.	.	.
.	.	4D/	.	4F/	.	.	.
.	.	2G/	.	2D/	.	.	.
2C/	.	2E/	.	2E/	.	.	.
1AA	.	2.F#i/	.	1C	.	.	.
.	.	4E/	.	.	.	.	.
=51	=51	=51	=51	=51	=51	=51	=51
0.GG	-tens.	1G	-tens.	0D	-tens.	1d	Do-
.	.	1r	.	.	.	1.g	-mi-
.	.	1D	Do-	1G	.	.	.
.	.	.	.	.	.	2a/	.
=52	=52	=52	=52	=52	=52	=52	=52
0.r	.	1.G	-mi-	2r	.	1b	-ne
.	.	.	.	1E	Do-	.	.
.	.	.	.	.	.	1cc	fi-
.	.	2A/	.	2F/	.	.	.
.	.	1B	.	2.G/	-mi-	2b\	.
.	.	.	.	.	.	[2g/	.
.	.	.	.	4F/	.	.	.
=53	=53	=53	=53	=53	=53	=53	=53
0.r	.	1B	-ne	1D	-ne	4g/]	.
.	.	.	.	.	.	4a/	.
.	.	.	.	.	.	2f/	.
.	.	1.c	fi-	2.C/	fi-	2e/	.
.	.	.	.	.	.	2f/	.
.	.	.	.	4D/	.	.	.
.	.	.	.	2E/	.	2g/	.
.	.	2A/	.	[2F/	.	[2a/	.
=54	=54	=54	=54	=54	=54	=54	=54
0.r	.	1A	.	4F/]	.	4a/]	.
.	.	.	.	4E/	.	4f/	.
.	.	.	.	2C/	.	2e/	.
.	.	2F/	.	2D/	.	2d/	.
.	.	2G/	.	2E/	.	1g	.
.	.	1A	.	1D	.	.	.
.	.	.	.	.	.	2f#i/	.
=55	=55	=55	=55	=55	=55	=55	=55
1r	.	0.G	-li	1d	-li	2.g/	-li
.	.	.	.	.	.	4f/	.
1r	.	.	.	2r	.	0d	.
.	.	.	.	1B	u-	.	.
1GG	u-	.	.	.	.	.	.
.	.	.	.	4A/	.	.	.
.	.	.	.	4B\	.	.	.
=56	=56	=56	=56	=56	=56	=56	=56
1.C	.	0.r	.	1.c	.	1.e	u-
2D\	-ni-	.	.	2B\	-ni-	2d/	-ni-
1E	-ge-	.	.	1G	-ge-	2c/	-ge-
.	.	.	.	.	.	2B/	-ni-
=57	=57	=57	=57	=57	=57	=57	=57
1E	-ni-	0.r	.	1G	-ni-	1B	-te,
1.F	-te,	.	.	1.A	-te,	2r	.
.	.	.	.	.	.	2d/	u-
.	.	.	.	.	.	2c/	-ni-
2D\	.	.	.	[2F/	Je-	[2f/	-ge-
=58	=58	=58	=58	=58	=58	=58	=58
1D	.	0.r	.	2F/]	.	4f/]	.
.	.	.	.	.	.	4e/	.
.	.	.	.	2A/	.	1d	.
2BB/	Je-	.	.	2G/	.	.	.
2C/	.	.	.	1c	.	2e/	.
1D	.	.	.	.	.	2f/	-ni-
.	.	.	.	2B\	.	2d/	-te,
=59	=59	=59	=59	=59	=59	=59	=59
0C	-su	0.r	.	0c	-su	1.e	Je-
.	.	.	.	.	.	2c/	-su
1GG	Chri-	.	.	1B	Chri-	1d	Chri-
=60	=60	=60	=60	=60	=60	=60	=60
0.C	-ste.	1r	.	1A	-ste.	0.e	-ste.
.	.	1r	.	1G	.	.	.
.	.	1G	Do-	1c	.	.	.
=61	=61	=61	=61	=61	=61	=61	=61
1BB	Do-	0G	-mi-	1d	.	0.r	.
0C	-mi-	.	.	0e	.	.	.
.	.	1c	-ne	.	.	.	.
=62	=62	=62	=62	=62	=62	=62	=62
1D	-ne	1B	de-	1d	.	1r	.
0E	.	0c	.	2r	.	0e	Do-
.	.	.	.	1G	Do-	.	.
.	.	.	.	4F/	-mi-	.	.
.	.	.	.	4G/	.	.	.
=63	=63	=63	=63	=63	=63	=63	=63
0D	.	0.d	.	1A	-ne	1f	-mi-
.	.	.	.	2B-i\	de-	2g/	-ne
.	.	.	.	2.A/	.	1a	de-
1BB	de-	.	.	.	.	.	.
.	.	.	.	4F/	.	.	.
.	.	.	.	2G/	.	2b\	.
=64	=64	=64	=64	=64	=64	=64	=64
1AA	-us,	1c	-us,	1A	.	2cc\	.
.	.	.	.	.	.	2a/	.
0GG	.	0B	.	1.D	.	2b\	.
.	.	.	.	.	.	1g	.
.	.	.	.	2E/	.	4f/	.
.	.	.	.	.	.	4g/	.
=65	=65	=65	=65	=65	=65	=65	=65
1D	a-	0A	.	1F	-us,	1a	-us,
2C/	.	.	.	2E/	.	2r	.
2D\	.	.	.	2D/	.	2f/	a-
2C/	-gnus	[1c	a-	1E	.	2g/	-gnus
[2AA/	.	.	.	.	.	[2a/	de-
=66	=66	=66	=66	=66	=66	=66	=66
2AA/]	.	2c\]	.	2e\	a-	2a/]	.
2BB/	.	2B\	.	2d\	.	4g/	.
.	.	.	.	.	.	4f/	.
2C/	.	0G	-gnus	2c\	-gnus	2e/	.
2GG/	.	.	.	2B\	.	2d/	-i,
2C/	.	.	.	1c	de-	2r	.
2E\	.	.	.	.	.	2g/	fi-
=67	=67	=67	=67	=67	=67	=67	=67
2.D\	de-	1.A	de-	0d	-i,	2.f/	.
4E\	.	.	.	.	.	4g/	.
2F\	.	.	.	.	.	2a/	.
1G	-i,	1.G	.	.	.	2b-i\	.
.	.	.	.	2B\	fi-	2.g/	.
2C/	fi-	.	.	2c\	.	.	.
.	.	.	.	.	.	4e/	.
=68	=68	=68	=68	=68	=68	=68	=68
2BB/	-li-	1G	.	2d\	.	2d/	.
2C/	.	.	.	2c\	.	2e/	.
1D	-us	2.F/	.	2A/	.	2f/	.
.	.	.	.	2B\	-li-	2d/	-li-
.	.	4E/	.	.	.	.	.
2.C/	pa-	[1G	.	2c\	-us	2e/	-us
.	.	.	.	[2C/	pa-	[2g/	pa-
4BB/	.	.	.	.	.	.	.
=69	=69	=69	=69	=69	=69	=69	=69
4AA/	.	1G]	.	2C/]	.	4g/]	.
4GG/	.	.	.	.	.	4a/	.
1GG	.	.	.	2D/	.	2b\	.
.	.	1A	.	2E/	.	1cc	.
2FF#i/	.	.	.	2F/	.	.	.
1GG	.	1G	-i,	2D/	.	1b	.
.	.	.	.	[2d\	.	.	.
=70	=70	=70	=70	=70	=70	=70	=70
1D	.	2r	.	2d\]	.	2a/	.
.	.	2F/	fi-	1B	.	1b	.
1E	.	1G	-li-	.	.	.	.
.	.	.	.	2c\	.	4a/	.
.	.	.	.	.	.	4g/	.
2D\	.	2A/	-us	1d	.	2f/	.
2GG/	.	2B\	.	.	.	2g/	.
=71	=71	=71	=71	=71	=71	=71	=71
2C/	.	2c\	pa-	2.G/	.	2e/	.
2.BB/	.	2d\	.	.	.	1d	.
.	.	.	.	4F/	.	.	.
.	.	1G	.	2D/	.	.	.
4C/	.	.	.	.	.	.	.
2E\	.	.	.	2C/	.	2.g/	.
1D	.	2A/	.	2r	.	.	.
.	.	.	.	.	.	4e/	.
.	.	2r	.	2BB/	.	2f#i/	.
=72	=72	=72	=72	=72	=72	=72	=72
0.GGl	-tris.	0.Gl	-tris.	0.Dl	-tris.	0.gl	-tris.
!!LO:LB:i:g=z
=73||	=73||	=73||	=73||	=73||	=73||	=73||	=73||
*>B	*>B	*>B	*>B	*>B	*>B	*>B	*>B
*clefF4	*	*clefGv2	*	*clefGv2	*	*clefG2	*
*k[]	*	*k[]	*	*k[]	*	*k[]	*
*M2/1	*	*M2/1	*	*M2/1	*	*M2/1	*
*met(C|)	*	*met(C|)	*	*met(C|)	*	*met(C|)	*
!!section: Qui tollis
!!!OMD: Qui tollis
0r	.	0r	.	0G	Qui	0d	Qui
=74	=74	=74	=74	=74	=74	=74	=74
0r	.	0r	.	1G	tol-	1d	tol-
.	.	.	.	1G	-lis	1d	-lis
=75	=75	=75	=75	=75	=75	=75	=75
0r	.	0r	.	1C	pec-	1e	pec-
.	.	.	.	1C	-ca-	[1e	-ca-
=76	=76	=76	=76	=76	=76	=76	=76
0r	.	0r	.	1.G	.	2e/]	.
.	.	.	.	.	.	2d/	.
.	.	.	.	.	.	1d	-ta
.	.	.	.	2A/	-ta	.	.
=77	=77	=77	=77	=77	=77	=77	=77
0r	.	0r	.	2B\	mun-	1.g	mun-
.	.	.	.	4c\	.	.	.
.	.	.	.	4d\	.	.	.
.	.	.	.	2e\	.	.	.
.	.	.	.	4d\	.	2f/	.
.	.	.	.	4c\	.	.	.
=78	=78	=78	=78	=78	=78	=78	=78
0r	.	0r	.	2B\	.	2e/	.
.	.	.	.	1c	.	4d/	.
.	.	.	.	.	.	4c/	.
.	.	.	.	.	.	1d	-di,
.	.	.	.	2B\	.	.	.
=79	=79	=79	=79	=79	=79	=79	=79
0r	.	0r	.	0c	-di,	1r	.
.	.	.	.	.	.	1c	mi-
=80	=80	=80	=80	=80	=80	=80	=80
0r	.	0r	.	1r	.	1d	-se-
.	.	.	.	1c	mi-	1e	-re-
=81	=81	=81	=81	=81	=81	=81	=81
0r	.	0r	.	1d	-se-	1f	-re
.	.	.	.	1e	-re-	1g	.
=82	=82	=82	=82	=82	=82	=82	=82
0r	.	0r	.	1f	-re	1a	.
.	.	.	.	2e\	no-	2r	.
.	.	.	.	2c\	.	2a/	no-
=83	=83	=83	=83	=83	=83	=83	=83
0r	.	0r	.	2e\	.	2g/	.
.	.	.	.	2f\	.	1cc	.
.	.	.	.	[1d	.	.	.
.	.	.	.	.	.	2b\	.
=84	=84	=84	=84	=84	=84	=84	=84
0r	.	0r	.	1d]	.	2b\	.
.	.	.	.	.	.	2a/	.
.	.	.	.	[1c	.	2.cc\	.
.	.	.	.	.	.	4b\	.
=85	=85	=85	=85	=85	=85	=85	=85
0r	.	0r	.	1c]	.	2g/	.
.	.	.	.	.	.	2.a/	.
.	.	.	.	1F	.	.	.
.	.	.	.	.	.	4g/	.
.	.	.	.	.	.	2a/	.
=86	=86	=86	=86	=86	=86	=86	=86
0r	.	0r	.	2G/	.	2g/	.
.	.	.	.	1A	.	2e/	.
.	.	.	.	.	.	2f/	.
.	.	.	.	2B\	.	2g/	.
=87	=87	=87	=87	=87	=87	=87	=87
0r	.	0r	.	1c	-bis,	1e	-bis,
.	.	.	.	1A	no-	2r	.
.	.	.	.	.	.	[2e/	no-
=88	=88	=88	=88	=88	=88	=88	=88
0r	.	0r	.	1.c	.	2e/]	.
.	.	.	.	.	.	4d/	.
.	.	.	.	.	.	4c/	.
.	.	.	.	.	.	2e/	.
.	.	.	.	2B\	.	2d/	.
=89	=89	=89	=89	=89	=89	=89	=89
0r	.	0r	.	1G	.	2e/	.
.	.	.	.	.	.	1g	.
.	.	.	.	1A	.	.	.
.	.	.	.	.	.	2f#i/	.
=90	=90	=90	=90	=90	=90	=90	=90
0r	.	0r	.	1G	-bis.	[0g	-bis.
.	.	.	.	1G	Qui	.	.
=91	=91	=91	=91	=91	=91	=91	=91
0r	.	0r	.	1c	tol-	0g]	.
.	.	.	.	1c	-lis	.	.
=92	=92	=92	=92	=92	=92	=92	=92
0r	.	0r	.	1B	pec-	1r	.
.	.	.	.	1B	-ca-	1G	Qui
=93	=93	=93	=93	=93	=93	=93	=93
0r	.	0r	.	1A	-ta	1c	tol-
.	.	.	.	1A	mun-	1c	-lis
=94	=94	=94	=94	=94	=94	=94	=94
0r	.	0r	.	1E	.	1B	pec-
.	.	.	.	1G	.	1B	-ca-
=95	=95	=95	=95	=95	=95	=95	=95
0r	.	0r	.	0F	.	1A	-ta
.	.	.	.	.	.	1A	mun-
=96	=96	=96	=96	=96	=96	=96	=96
0r	.	0r	.	1.E	.	1G	.
.	.	.	.	.	.	1c	.
.	.	.	.	[2F/	-di,	.	.
=97	=97	=97	=97	=97	=97	=97	=97
0r	.	0r	.	2F/]	.	1d	-di,
.	.	.	.	4E/	.	.	.
.	.	.	.	4D/	.	.	.
.	.	.	.	1C	.	1e	.
=98	=98	=98	=98	=98	=98	=98	=98
[0GG	sus-	0r	.	[0G	sus-	1r	.
.	.	.	.	.	.	[1d	sus-
=99	=99	=99	=99	=99	=99	=99	=99
1GG]	.	0r	.	1G]	.	2d/]	.
.	.	.	.	.	.	2d/	-ci-
1GG	-ci-	.	.	1G	-ci-	1d	-pe
=100	=100	=100	=100	=100	=100	=100	=100
1GG	-pe	0r	.	1G	-pe	1B	de-
1C	de-	.	.	1A	de-	1c	-pre-
=101	=101	=101	=101	=101	=101	=101	=101
1C	-pre-	0r	.	1A	-pre-	1c	-ca-
1GG	-ca-	.	.	1G	-ca-	1B	-ti-
=102	=102	=102	=102	=102	=102	=102	=102
1GG	-ti-	0r	.	1E	-ti-	1B	-o-
[1D	-o-	.	.	[1F	-o-	1A	-nem
=103	=103	=103	=103	=103	=103	=103	=103
2D\]	.	0r	.	2F/]	.	1.d	nos-
2E\	.	.	.	2G/	.	.	.
1F	-nem	.	.	1A	-nem	.	.
.	.	.	.	.	.	2c/	.
=104	=104	=104	=104	=104	=104	=104	=104
1D	nos-	0r	.	1B	nos-	1d	.
2C/	.	.	.	1c	.	1e	-tram.
2AA/	.	.	.	.	.	.	.
=105	=105	=105	=105	=105	=105	=105	=105
2GG/	.	0r	.	2B\	.	2r	.
1C	.	.	.	2.G/	.	1e	Qui
.	.	.	.	4F/	.	.	.
2BB/	.	.	.	2D/	.	2f/	.
=106	=106	=106	=106	=106	=106	=106	=106
2C/	-tram.	0r	.	1C	-tram.	2e/	se-
2E\	.	.	.	.	.	2c/	.
2D\	.	.	.	2r	.	2.B/	.
2G\	.	.	.	2E/	Qui	.	.
.	.	.	.	.	.	4G/	.
=107	=107	=107	=107	=107	=107	=107	=107
2r	.	0r	.	2.D/	se-	2A/	.
2GG/	Qui	.	.	.	.	2G/	.
.	.	.	.	4E/	.	.	.
2AA/	.	.	.	2F/	.	2c/	.
2GG/	.	.	.	[2G/	.	2B/	.
=108	=108	=108	=108	=108	=108	=108	=108
2C/	se-	0r	.	4G/]	.	2e/	.
.	.	.	.	4A/	.	.	.
2BB/	.	.	.	2B\	.	2d/	.
2D\	-des	.	.	2A/	.	2f/	.
2C/	.	.	.	2c\	.	2e/	.
=109	=109	=109	=109	=109	=109	=109	=109
2.E\	ad	0r	.	2B\	-des	2g/	-des
.	.	.	.	2G/	ad	2.c/	ad
4D\	.	.	.	.	.	.	.
2F\	dex-	.	.	2A/	dex-	.	.
.	.	.	.	.	.	4d/	.
2E\	-te-	.	.	2G/	-te-	[2e/	dex-
=110	=110	=110	=110	=110	=110	=110	=110
2G\	-ram	0r	.	1E	-ram	4e/]	.
.	.	.	.	.	.	4d/	.
2.C/	pa-	.	.	.	.	4c/	-te-
.	.	.	.	.	.	4B/	.
.	.	.	.	2F/	pa-	2A/	-ram
4D\	.	.	.	.	.	.	.
[2E\	.	.	.	[2G/	.	2G/	.
=111	=111	=111	=111	=111	=111	=111	=111
4E\]	.	0r	.	2G/]	.	2.c/	pa-
4D\	.	.	.	.	.	.	.
4C/	.	.	.	1A	.	.	.
4BB/	.	.	.	.	.	4d/	.
2AA/	.	.	.	.	.	4e/	.
.	.	.	.	.	.	4f/	.
2GG/	.	.	.	2B\	.	2g/	-tris,
=112	=112	=112	=112	=112	=112	=112	=112
2.C/	-tris,	0r	.	2c\	-tris,	2r	.
.	.	.	.	1A	mi-	1c	mi-
4D\	.	.	.	.	.	.	.
4E\	.	.	.	.	.	.	.
4F\	.	.	.	.	.	.	.
2G\	.	.	.	[2G/	-se-	2B/	-se-
=113	=113	=113	=113	=113	=113	=113	=113
2C/	mi-	0r	.	2G/]	.	2e/	-re-
2BB/	-se-	.	.	2.G/	-re-	2d/	-re
2E\	-re-	.	.	.	.	2G/	no-
.	.	.	.	4E/	.	.	.
2D\	-re	.	.	2F/	-re	2A/	.
=114	=114	=114	=114	=114	=114	=114	=114
2GG/	no-	0r	.	2G/	no-	2G/	.
2AA/	.	.	.	2C/	.	2.c/	.
1GG	.	.	.	1D	.	.	.
.	.	.	.	.	.	4B/	.
.	.	.	.	.	.	4B/	.
.	.	.	.	.	.	4A/	.
=115	=115	=115	=115	=115	=115	=115	=115
0G	-bis.	0r	.	0C	-bis.	0c	-bis.
=116	=116	=116	=116	=116	=116	=116	=116
0E	Quo-	0r	.	1G	Quo-	0r	.
.	.	.	.	[1G	-ni-	.	.
=117	=117	=117	=117	=117	=117	=117	=117
0F	-ni-	0r	.	2G/]	.	0r	.
.	.	.	.	4F/	.	.	.
.	.	.	.	4E/	.	.	.
.	.	.	.	1D	.	.	.
=118	=118	=118	=118	=118	=118	=118	=118
1G	-am	0G	Quo-	1C	-am	0r	.
1GG	tu	.	.	1D	tu	.	.
=119	=119	=119	=119	=119	=119	=119	=119
1C	so-	0E	-ni-	1C	so-	0r	.
[1C	-lus	.	.	[1AA	-lus	.	.
=120	=120	=120	=120	=120	=120	=120	=120
2C/]	.	0F	-am	2AA/]	.	0r	.
2BB/	.	.	.	2BB/	.	.	.
1AA	.	.	.	1C	.	.	.
=121	=121	=121	=121	=121	=121	=121	=121
0GG	sanc-	0G	tu	1.D	sanc-	0r	.
.	.	.	.	2E/	.	.	.
=122	=122	=122	=122	=122	=122	=122	=122
1D	.	1.A	so-	2.F/	.	0r	.
.	.	.	.	4G/	.	.	.
2C/	.	.	.	2A/	.	.	.
[2BB-/	.	[2G/	-lus	[2B-i\	.	.	.
=123	=123	=123	=123	=123	=123	=123	=123
4BB-/]	.	2G/]	.	2B-\]	.	0r	.
4GG/	.	.	.	.	.	.	.
2AA/	.	2F/	sanc-	2A/	.	.	.
1GG	-tus.	1G	.	2.B-i\	.	.	.
.	.	.	.	4G/	.	.	.
=124	=124	=124	=124	=124	=124	=124	=124
1r	.	0D	-tus.	0A	-tus.	0r	.
1D	Tu	.	.	.	.	.	.
=125	=125	=125	=125	=125	=125	=125	=125
1E	so-	1r	.	0r	.	0r	.
1F	-lus	1D	Tu	.	.	.	.
=126	=126	=126	=126	=126	=126	=126	=126
1G	do-	1E	so-	0r	.	0r	.
1A	.	1F	-lus	.	.	.	.
=127	=127	=127	=127	=127	=127	=127	=127
2G\	.	1G	do-	0r	.	0r	.
1E	.	.	.	.	.	.	.
.	.	1A	.	.	.	.	.
2F\	.	.	.	.	.	.	.
=128	=128	=128	=128	=128	=128	=128	=128
2G\	.	2G/	.	0r	.	0r	.
2C/	.	1E	.	.	.	.	.
1D	.	.	.	.	.	.	.
.	.	2F/	.	.	.	.	.
=129	=129	=129	=129	=129	=129	=129	=129
2C/	.	2G/	.	0r	.	0e	Quo-
2.AA/	.	2A/	.	.	.	.	.
.	.	2G/	.	.	.	.	.
4BB/	.	.	.	.	.	.	.
2C/	.	[2c\	.	.	.	.	.
=130	=130	=130	=130	=130	=130	=130	=130
2E\	.	2c\]	.	0r	.	2e/	-ni-
2F\	.	2A/	.	.	.	2d/	.
1D	-mi-	2B\	-mi-	.	.	1f	-am
.	.	2A/	.	.	.	.	.
=131	=131	=131	=131	=131	=131	=131	=131
0C	-nus.	0c	-nus.	2G/	Tu	1e	tu
.	.	.	.	2A/	.	.	.
.	.	.	.	2G/	.	[1g	so-
.	.	.	.	[2c\	so-	.	.
=132	=132	=132	=132	=132	=132	=132	=132
0r	.	0G	.	2c\]	.	2g/]	.
.	.	.	.	2B\	.	4f/	.
.	.	.	.	.	.	4e/	.
.	.	.	.	2B\	.	1d	.
.	.	.	.	2A/	.	.	.
=133	=133	=133	=133	=133	=133	=133	=133
0C	Tu	0r	.	0c	-lus	1c	-lus
.	.	.	.	.	.	1g	sanc-
=134	=134	=134	=134	=134	=134	=134	=134
1F	so-	0r	.	1A	do-	1a	.
1E	.	.	.	1B	.	[1g	.
=135	=135	=135	=135	=135	=135	=135	=135
0C	-lus	0c	Tu	1.c	-mi-	1g]	.
.	.	.	.	.	.	1cc	.
.	.	.	.	2A/	.	.	.
=136	=136	=136	=136	=136	=136	=136	=136
0r	.	0e	.	1G	-nus.	1b	-tus.
.	.	.	.	1c	.	1g	.
=137	=137	=137	=137	=137	=137	=137	=137
1r	.	0d	so-	0r	.	0a	.
1F	Tu	.	.	.	.	.	.
=138	=138	=138	=138	=138	=138	=138	=138
1E	so-	0e	-lus	1B	Tu	0g	.
1C	.	.	.	1c	.	.	.
=139	=139	=139	=139	=139	=139	=139	=139
1D	.	0r	.	1A	so-	1r	.
1BB	.	.	.	1d	-lus	1f	Tu
=140	=140	=140	=140	=140	=140	=140	=140
0C	-lus	0r	.	1r	.	1e	so-
.	.	.	.	1c	al-	1c	-lus
=141	=141	=141	=141	=141	=141	=141	=141
0G	al-	0r	.	1B	-tis-	1d	do-
.	.	.	.	1G	.	1B	-mi-
=142	=142	=142	=142	=142	=142	=142	=142
1F	-tis-	0r	.	1A	.	1c	-nus.
1E	-si-	.	.	1G	-si-	1g	Tu
=143	=143	=143	=143	=143	=143	=143	=143
1C	-mus,	[0e	al-	[0c	-mus,	0a	so-
1AA	.	.	.	.	.	.	.
=144	=144	=144	=144	=144	=144	=144	=144
0C	.	0e]	.	0c]	.	1g	-lus
.	.	.	.	.	.	1cc	al-
=145	=145	=145	=145	=145	=145	=145	=145
1r	.	0d	.	[0G	Je-	2b\	-tis-
.	.	.	.	.	.	1b	-si-
1GG	Je-	.	.	.	.	.	.
.	.	.	.	.	.	2a/	.
=146	=146	=146	=146	=146	=146	=146	=146
1.C	-su	1c	-tis-	0G]	.	1.cc	-mus,
.	.	[1e	.	.	.	.	.
2D\	.	.	.	.	.	4b\	.
.	.	.	.	.	.	4a/	.
=147	=147	=147	=147	=147	=147	=147	=147
1E	Chri-	1e]	.	0c	-su	1g	.
1F	.	1A	.	.	.	1a	Je-
=148	=148	=148	=148	=148	=148	=148	=148
0D	-ste.	0B	-si-	0d	Chri-	2g/	-su
.	.	.	.	.	.	1f	Chri-
.	.	.	.	.	.	4e/	.
.	.	.	.	.	.	4d/	.
=149	=149	=149	=149	=149	=149	=149	=149
1r	.	0c	-mus,	1A	-ste.	1e	-ste.
[1A	Cum	.	.	[1c	Cum	1r	.
=150	=150	=150	=150	=150	=150	=150	=150
1A]	.	0r	.	1c]	.	1e	Cum
1G	sanc-	.	.	1B	.	[1e	sanc-
=151	=151	=151	=151	=151	=151	=151	=151
1E	.	0r	.	1G	sanc-	1e]	.
1F	.	.	.	1A	.	1c	.
=152	=152	=152	=152	=152	=152	=152	=152
0D	.	0r	.	0F	.	1d	.
.	.	.	.	.	.	1f	.
=153	=153	=153	=153	=153	=153	=153	=153
1C	-to	1r	.	1G	-to	1.e	.
1AA	.	[1e	Cum	1r	.	.	.
.	.	.	.	.	.	4d/	.
.	.	.	.	.	.	4c/	.
=154	=154	=154	=154	=154	=154	=154	=154
0GG	.	1e]	.	0G	spi-	1.B	.
.	.	1d	sanc-	.	.	.	.
.	.	.	.	.	.	2c/	.
=155	=155	=155	=155	=155	=155	=155	=155
1D	spi-	1B	-to	1F	-ri-	1d	-to
1C	.	1c	.	1G	-tu,	1e	.
=156	=156	=156	=156	=156	=156	=156	=156
0F	.	0A	.	1r	.	1c	spi-
.	.	.	.	1A	spi-	1d	.
=157	=157	=157	=157	=157	=157	=157	=157
0E	.	0r	.	2B\	.	1e	.
.	.	.	.	1c	.	.	.
.	.	.	.	.	.	1g	.
.	.	.	.	2B\	.	.	.
=158	=158	=158	=158	=158	=158	=158	=158
1D	.	0r	.	1.d	.	1.f	.
[1F	.	.	.	.	.	.	.
.	.	.	.	2c\	.	4e/	.
.	.	.	.	.	.	4d/	.
=159	=159	=159	=159	=159	=159	=159	=159
1F]	.	[0c	spi-	1A	.	1c	.
1E	-ri-	.	.	1G	.	[1e	.
=160	=160	=160	=160	=160	=160	=160	=160
0C	-tu,	0c]	.	1.E	-ri-	1e]	.
.	.	.	.	.	.	[1g	.
.	.	.	.	2F/	.	.	.
=161	=161	=161	=161	=161	=161	=161	=161
0r	.	0B	-ri-	0G	-tu,	2g/]	.
.	.	.	.	.	.	4f/	.
.	.	.	.	.	.	4e/	.
.	.	.	.	.	.	1d	-ri-
=162	=162	=162	=162	=162	=162	=162	=162
0r	.	0A	-tu,	0D	.	0f	-tu,
=163	=163	=163	=163	=163	=163	=163	=163
0F	in	1r	.	0r	.	0a	in
.	.	[1c	in	.	.	.	.
=164	=164	=164	=164	=164	=164	=164	=164
1.F	glo-	1c]	.	0r	.	1a	glo-
.	.	1c	glo-	.	.	1a	-ri-
2F\	-ri-	.	.	.	.	.	.
=165	=165	=165	=165	=165	=165	=165	=165
1G	-a	0B	-ri-	0r	.	1g	-a
[1E	de-	.	.	.	.	[1g	de-
=166	=166	=166	=166	=166	=166	=166	=166
2E\]	.	0G	-a	0r	.	2g/]	.
4D\	.	.	.	.	.	4f/	.
4C/	.	.	.	.	.	4e/	.
1BB	-i	.	.	.	.	1d	-i
=167	=167	=167	=167	=167	=167	=167	=167
1.AA	pa-	0A	de-	0r	.	1f	pa-
.	.	.	.	.	.	[1e	.
2BB/	.	.	.	.	.	.	.
=168	=168	=168	=168	=168	=168	=168	=168
1C	.	1G	-i	0r	.	2e/]	.
.	.	.	.	.	.	2c/	.
1E	.	[1G	pa-	.	.	[1c	.
=169	=169	=169	=169	=169	=169	=169	=169
0D	.	1G]	.	0r	.	1c]	.
.	.	1F	.	.	.	1B	.
=170	=170	=170	=170	=170	=170	=170	=170
0C	-tris.	1G	-tris.	0r	.	[0c	-tris.
.	.	2A/	A-	.	.	.	.
.	.	[2c\	.	.	.	.	.
=171	=171	=171	=171	=171	=171	=171	=171
1E	A-	2c\]	.	1G	A-	0c]	.
.	.	2B\	.	.	.	.	.
1F	.	1A	.	1A	.	.	.
=172	=172	=172	=172	=172	=172	=172	=172
2G\	.	1G	.	0B	.	1r	.
2E\	.	.	.	.	.	.	.
1D	.	1d	.	.	.	1f	A-
=173	=173	=173	=173	=173	=173	=173	=173
1C	.	2e\	.	1c	.	2g/	.
.	.	2c\	.	.	.	2e/	.
1G	.	2d\	.	1B	.	1d	.
.	.	2B\	.	.	.	.	.
=174	=174	=174	=174	=174	=174	=174	=174
1A	.	1c	.	2r	.	1c	.
.	.	.	.	2A/	.	.	.
2G\	.	2B\	.	2B\	.	1g	.
2E\	.	[2c\	.	2G/	.	.	.
=175	=175	=175	=175	=175	=175	=175	=175
1F	.	2c\]	.	2r	.	1a	.
.	.	2d\	.	2D/	.	.	.
1G	.	1B	.	[1d	.	2g/	.
.	.	.	.	.	.	2e/	.
=176	=176	=176	=176	=176	=176	=176	=176
2.D\	.	1A	.	2d\]	.	2.f/	.
.	.	.	.	1d	.	.	.
4C/	.	.	.	.	.	4g/	.
2BB/	.	2G/	.	.	.	4a/	.
.	.	.	.	.	.	4b\	.
2AA/	.	2A/	.	2e\	.	[2cc\	.
=177	=177	=177	=177	=177	=177	=177	=177
1FF	.	2.c\	.	1.f	.	2cc\]	.
.	.	.	.	.	.	2a/	.
.	.	4B\	.	.	.	.	.
1GG	.	2G/	.	.	.	1b	.
.	.	4F/	.	[2d\	.	.	.
.	.	4E/	.	.	.	.	.
=178	=178	=178	=178	=178	=178	=178	=178
2BB/	.	2D/	.	2d\]	.	2g/	.
2AA/	.	2C/	.	2e\	.	2.a/	.
2C/	.	2E/	.	2c\	.	.	.
.	.	.	.	.	.	4g/	.
2D\	.	2F/	.	2A/	.	4f/	.
.	.	.	.	.	.	4e/	.
=179	=179	=179	=179	=179	=179	=179	=179
2.BB/	.	2G/	.	2B\	.	2.d/	.
.	.	1G	.	2G/	.	.	.
4GG/	.	.	.	.	.	4e/	.
1D	.	.	.	2r	.	4d/	.
.	.	.	.	.	.	8c/L	.
.	.	.	.	.	.	8B/J	.
.	.	2F/	.	[2D/	.	2A/	.
=180	=180	=180	=180	=180	=180	=180	=180
2GG/	.	2G/	.	2D/]	.	2G/	.
2AA/	.	2F/	.	2C/	.	2r	.
2GG/	.	2G/	.	2D/	.	2d/	.
2C/	.	2A/	.	2E/	.	2c/	.
=181	=181	=181	=181	=181	=181	=181	=181
2BB/	.	2G/	.	2D/	.	2d/	.
2C/	.	2c\	.	2G/	.	2e/	.
2D\	.	2B\	.	2F/	.	2d/	.
2C/	.	2c\	.	2G/	.	2g/	.
=182	=182	=182	=182	=182	=182	=182	=182
2F\	.	2d\	.	2A/	.	2f/	.
2E\	.	2.c\	.	2G/	.	2g/	.
2F\	.	.	.	2c\	.	2a/	.
.	.	4B\	.	.	.	.	.
2G\	.	2G/	.	2B\	.	2g/	.
=183	=183	=183	=183	=183	=183	=183	=183
1F	.	1A	.	2c\	.	2.cc\	.
.	.	.	.	2d\	.	.	.
.	.	.	.	.	.	4b\	.
2E\	.	2B\	.	2e\	.	2g/	.
[2C/	.	[2c\	.	[2e\	.	[2a/	.
=184	=184	=184	=184	=184	=184	=184	=184
4C/]	.	4c\]	.	4e\]	.	2a/]	.
4D\	.	4B\	.	4d\	.	.	.
2E\	.	2G/	.	2c\	.	1g	.
1D	.	1A	.	1d	.	.	.
.	.	.	.	.	.	2f#i/	.
=185	=185	=185	=185	=185	=185	=185	=185
0GGl	-men.	0Gl	-men.	0dl	-men.	0gl	-men.
==	==	==	==	==	==	==	==
*-	*-	*-	*-	*-	*-	*-	*-
!!!RDF**kern: l=long note in original notation
!!!RDF**kern: i=editorial accidental
!!!ENC:	Will Watson 12/09/2012
!!!END:	2015/12/06/ (text)
!!!EED:	Jesse Rodin
!!!EEV:	2015/12/07/
!!!ONB:	Translated from MusicXML and edited on 2015/12/07/ by Craig Sapp
!!muse2ps: T^@{OPR}^u^@{ONM}{. }@{OTL}^C^@{COM}^i2I150v85,85,85,150Q16
